<?xml version="1.0" encoding="UTF-8"?>
<map version="1.10" tiledversion="1.11.2" orientation="orthogonal" renderorder="right-down" width="20" height="20" tilewidth="32" tileheight="32" infinite="0" nextlayerid="5" nextobjectid="1">
 <editorsettings>
  <export target="map01.lua" format="lua"/>
 </editorsettings>
 <tileset firstgid="1" name="Tileset-Terrain2" tilewidth="32" tileheight="32" tilecount="504" columns="36">
  <image source="../../../EPIC RPG World Pack/Tilesets/Tileset-Terrain2.png" width="1152" height="448"/>
 </tileset>
 <tileset firstgid="505" name="Water-Animated" tilewidth="32" tileheight="32" tilecount="261" columns="29">
  <image source="../../../EPIC RPG World Pack/Tilesets/Tileset-Animated Terrains-8 frames-.png" width="928" height="288"/>
 </tileset>
 <tileset firstgid="766" name="Walls" tilewidth="32" tileheight="32" tilecount="70" columns="10">
  <image source="../../../EPIC RPG World Pack/Tilesets/wall-8 - 2 tiles tall-transparency.png" width="320" height="224"/>
 </tileset>
 <layer id="1" name="terrain0" width="20" height="20">
  <data encoding="csv">
18,18,18,18,18,18,18,18,18,18,18,18,18,18,18,18,18,18,18,18,
18,18,18,18,18,18,18,18,18,18,18,18,18,18,18,18,18,18,18,18,
18,18,18,18,18,18,18,18,18,18,18,18,18,18,18,18,18,18,18,18,
18,18,18,18,18,18,18,18,18,18,18,18,18,18,18,18,18,18,18,18,
18,18,18,18,18,18,18,18,18,18,18,18,18,18,18,18,18,18,18,18,
18,18,18,18,18,18,18,18,18,18,18,18,18,18,18,18,18,18,18,18,
18,18,18,18,18,18,18,18,18,18,18,18,18,18,18,18,18,18,18,18,
18,18,18,18,18,18,18,18,18,18,18,18,18,18,18,18,18,18,18,18,
18,18,18,18,18,18,18,18,18,18,18,18,18,18,18,18,18,18,18,18,
18,18,18,18,18,18,18,18,18,18,18,18,18,18,18,18,18,18,18,18,
18,18,18,18,18,18,18,18,18,18,18,18,18,18,18,18,18,18,18,18,
18,18,18,18,18,18,18,18,18,18,18,18,18,18,18,18,18,18,18,18,
18,18,18,18,18,18,18,18,18,18,18,18,18,18,18,18,18,18,18,18,
18,18,18,18,18,18,18,18,18,18,18,18,18,18,18,18,18,18,18,18,
18,18,18,18,18,18,18,18,18,18,18,18,18,18,18,18,18,18,18,18,
18,18,18,18,18,18,18,18,18,18,18,18,18,18,18,18,18,18,18,18,
18,18,18,18,18,18,18,18,18,18,18,18,18,18,18,18,18,18,18,18,
18,18,18,18,18,18,18,18,18,18,18,18,18,18,18,18,18,18,18,18,
18,18,18,18,18,18,18,18,18,18,18,18,18,18,18,18,18,18,18,18,
18,18,18,18,18,18,18,18,18,18,18,18,18,18,18,18,18,18,18,18
</data>
 </layer>
 <layer id="2" name="terrain1" width="20" height="20">
  <data encoding="csv">
21,21,22,0,91,95,127,23,21,19,131,0,91,95,0,20,56,95,0,91,
165,128,58,59,91,58,21,19,165,23,59,0,91,95,0,164,128,95,0,91,
0,91,130,23,56,235,130,23,22,91,58,21,56,58,21,21,19,131,0,91,
21,56,95,91,272,203,95,127,131,91,163,200,203,239,239,93,95,0,20,19,
128,130,166,91,130,128,95,0,55,19,165,165,128,130,128,271,95,20,19,131,
91,58,21,56,95,164,131,0,164,166,0,20,56,58,56,273,58,130,23,59,
19,165,128,130,23,22,0,55,22,0,0,91,92,271,57,163,93,58,19,23,
95,0,91,95,164,23,21,56,95,55,59,91,93,93,237,203,163,237,95,164,
55,21,56,131,0,91,235,273,58,56,58,56,273,275,130,128,200,274,58,59,
56,271,95,0,20,56,239,236,238,130,165,128,167,273,58,56,239,130,128,95,
236,203,95,0,91,200,273,130,165,166,0,91,163,93,93,130,165,58,56,95,
128,93,58,59,164,128,130,131,0,0,0,91,200,167,94,95,0,127,128,95,
91,275,93,95,0,91,95,0,0,0,0,91,272,271,163,95,91,22,127,131,
56,201,167,95,20,56,58,21,21,22,0,91,235,275,275,95,91,58,21,21,
274,236,93,95,91,93,239,203,163,58,21,56,275,273,274,58,56,275,201,167,
239,130,165,131,91,273,199,130,165,165,128,130,165,165,128,271,130,165,165,165,
92,95,0,0,91,239,130,166,0,55,56,58,22,0,164,128,95,0,0,0,
130,131,0,0,91,130,166,0,0,91,163,274,95,0,0,91,58,59,0,0,
95,0,20,22,164,166,55,59,55,56,239,275,58,59,0,164,128,95,0,0,
166,55,56,58,0,55,56,58,56,239,272,273,200,95,0,0,91,95,0,0
</data>
 </layer>
 <layer id="3" name="walls" width="20" height="20">
  <data encoding="csv">
0,0,0,0,0,0,779,780,0,0,0,0,0,0,0,0,0,0,0,0,
0,0,0,0,0,0,0,790,0,0,0,0,0,0,0,0,0,0,0,0,
0,0,0,0,0,0,799,800,0,0,0,0,0,0,0,0,0,0,0,0,
0,0,0,0,0,0,0,810,0,0,0,0,767,768,769,0,0,767,768,769,
0,0,0,0,799,0,0,0,0,0,0,767,777,0,779,768,768,777,0,779,
808,808,808,808,809,0,0,0,767,768,768,777,0,0,0,0,0,0,0,0,
818,818,818,818,819,0,0,776,777,0,0,0,0,0,0,0,0,0,0,0,
0,0,0,0,0,0,0,786,0,0,0,0,0,0,0,0,0,0,0,0,
0,0,0,0,0,0,0,796,808,811,0,0,0,0,0,0,0,0,0,0,
0,0,0,0,0,0,0,806,818,821,0,0,0,0,0,0,0,0,0,0,
0,0,0,0,0,0,0,0,0,786,0,0,0,0,0,0,0,0,0,0,
0,0,0,0,0,0,0,0,0,786,0,0,0,0,0,0,0,0,0,0,
0,0,0,0,0,0,0,0,0,786,0,0,0,0,0,0,0,0,0,0,
0,0,0,0,0,0,0,0,0,796,808,808,0,0,0,808,808,808,808,808,
0,0,0,0,0,0,0,0,0,806,818,818,0,0,0,818,818,818,818,818,
0,0,0,0,0,0,0,0,0,0,0,0,0,0,0,0,0,0,0,0,
0,0,0,0,0,0,0,0,0,0,0,0,0,0,0,0,0,0,0,0,
0,0,0,0,0,0,0,0,0,0,0,0,0,0,0,0,0,0,0,0,
0,0,0,0,0,0,0,0,0,0,0,0,0,0,0,0,0,0,0,0,
0,0,0,0,0,0,0,0,0,0,0,0,0,0,0,0,0,0,0,0
</data>
 </layer>
 <layer id="4" name="stairs" width="20" height="20">
  <data encoding="csv">
0,0,0,0,0,0,0,0,0,0,0,0,0,0,0,0,0,0,0,0,
0,0,0,0,0,0,0,0,0,0,0,0,0,0,0,0,0,0,0,0,
0,0,0,0,0,0,0,0,0,0,0,0,0,0,0,0,0,0,0,0,
0,0,0,0,0,14,15,16,0,0,0,0,0,0,0,0,0,0,0,0,
0,0,0,0,0,50,51,52,0,0,0,0,0,0,0,0,0,0,0,0,
0,0,0,0,0,86,87,88,89,0,0,0,0,0,0,0,0,0,0,0,
0,0,0,0,0,122,123,124,0,0,0,0,0,0,0,0,0,0,0,0,
710,710,710,680,0,0,0,0,0,0,0,0,0,0,0,0,0,0,0,0,
534,534,534,709,680,0,0,0,0,0,0,0,0,0,0,0,0,0,0,0,
594,594,595,534,709,680,0,0,0,0,0,0,0,0,0,0,0,0,0,0,
0,0,717,595,534,650,0,0,0,0,0,0,0,0,0,0,0,0,0,0,
0,0,0,654,534,650,0,0,0,0,0,0,0,0,0,0,0,0,0,0,
0,0,0,654,534,650,0,0,0,0,0,0,0,0,0,0,0,0,0,0,
0,0,0,654,534,650,0,0,0,0,0,155,156,157,158,159,0,0,0,0,
0,0,597,627,534,709,680,0,0,0,0,191,192,193,194,195,0,0,0,0,
0,0,717,594,625,534,709,680,0,0,0,227,228,229,230,231,0,0,0,0,
0,0,0,0,717,625,534,709,710,710,680,0,0,0,0,0,0,0,0,0,
0,0,0,0,0,654,534,534,534,534,679,680,0,0,0,0,0,0,0,0,
0,0,0,0,0,717,594,595,534,534,534,650,0,0,0,0,0,0,0,0,
0,0,0,0,0,0,0,717,594,688,534,679,0,0,0,0,0,0,0,0
</data>
 </layer>
</map>
